resources/haticons/SVG/zoom_in.svg

<!-- Generated by IcoMoon.io -->
<svg version="1.1" xmlns="http://www.w3.org/2000/svg" width="24" height="24" viewBox="0 0 24 24">
<title>zoom_in</title>
<path d="M12 9.984h-2.016v2.016h-0.984v-2.016h-2.016v-0.984h2.016v-2.016h0.984v2.016h2.016v0.984zM9.516 14.016q1.875 0 3.188-1.313t1.313-3.188-1.313-3.188-3.188-1.313-3.188 1.313-1.313 3.188 1.313 3.188 3.188 1.313zM15.516 14.016l4.969 4.969-1.5 1.5-4.969-4.969v-0.797l-0.281-0.281q-1.781 1.547-4.219 1.547-2.719 0-4.617-1.875t-1.898-4.594 1.898-4.617 4.617-1.898 4.594 1.898 1.875 4.617q0 0.984-0.469 2.227t-1.078 1.992l0.281 0.281h0.797z"></path>
</svg>

<svg xmlns="http://www.w3.org/2000/svg" width="24" height="24"><path d="M12 9.984H9.984V12H9V9.984H6.984V9H9V6.984h.984V9H12v.984zm-2.484 4.032q1.875 0 3.188-1.313t1.313-3.188-1.313-3.188-3.188-1.313-3.188 1.313-1.313 3.188 1.313 3.188 3.188 1.313zm6 0l4.969 4.969-1.5 1.5-4.969-4.969v-.797l-.281-.281q-1.781 1.547-4.219 1.547-2.719 0-4.617-1.875T3.001 9.516t1.898-4.617 4.617-1.898 4.594 1.898 1.875 4.617q0 .984-.469 2.227t-1.078 1.992l.281.281h.797z"/></svg>
